storybook/stories/components/semantic-link/assets/icon-semantic.svg

<?xml version="1.0" encoding="UTF-8"?>
<svg width="80px" height="80px" viewBox="0 0 80 80" version="1.1" xmlns="http://www.w3.org/2000/svg" xmlns:xlink="http://www.w3.org/1999/xlink">
    <!-- Generator: Sketch 60.1 (88133) - https://sketch.com -->
    <title>Group</title>
    <desc>Created with Sketch.</desc>
    <g id="Page-1" stroke="none" stroke-width="1" fill="none" fill-rule="evenodd">
        <g id="-">
            <g id="Group">
                <polygon id="Path" fill="#00C1B2" points="0 0 80 80 80 0"></polygon>
                <path d="M64.2896202,18.3000673 L67.3296474,14.3991907 C63.8072481,11.971588 60.8717133,10.8442775 58.5230431,11.0172592 C55.5584504,11.0327897 50.2639452,11.868405 49.1871852,18.1824145 C48.9696817,21.8742238 50.408831,24.5 54.931344,26.0062134 C55.4495517,26.1788014 56.2529245,26.4927695 57.3414625,26.9481178 C60.760051,27.9560582 62.2217594,29.3118056 61.7265876,31.0153599 C61.2798879,32.708813 59.4564825,33.2164701 56.2563714,32.5383313 L51.2914,30.3242158 L48,34.3730486 C51.1776423,36.478274 54.2344833,37.6660902 57.170523,37.9364973 C61.5745825,38.3421078 67.0879691,36.9277739 68,30.100274 C67.9147196,26.3181108 66.5675768,24.8094577 62.7138259,23.0203469 C58.860075,21.2312362 55.5247472,20.51191 55.1616617,19.1158339 C54.7985761,17.7197578 55.8617791,16.348379 57.750445,16.1719376 C59.6710468,16.0737042 61.8507719,16.7830807 64.2896202,18.3000673 Z" id="Path-2" fill="#FFFFFF"></path>
            </g>
        </g>
    </g>
</svg>

<svg width="80" height="80" xmlns="http://www.w3.org/2000/svg"><g fill="none" fill-rule="evenodd"><path fill="#00C1B2" d="M0 0l80 80V0z"/><path d="M64.29 18.3l3.04-3.9c-3.523-2.428-6.458-3.556-8.807-3.383-2.965.016-8.26.851-9.336 7.165-.217 3.692 1.222 6.318 5.744 7.824.519.173 1.322.487 2.41.942 3.42 1.008 4.88 2.364 4.386 4.067-.447 1.694-2.27 2.201-5.47 1.523l-4.966-2.214L48 34.373c3.178 2.105 6.234 3.293 9.17 3.563 4.405.406 9.918-1.008 10.83-7.836-.085-3.782-1.432-5.29-5.286-7.08-3.854-1.789-7.19-2.508-7.552-3.904-.363-1.396.7-2.768 2.588-2.944 1.921-.098 4.1.611 6.54 2.128z" fill="#FFF"/></g></svg>
